build/category/ChairOutline.svg

<svg xmlns="http://www.w3.org/2000/svg" fill="none" viewBox="0 0 24 24" focusable="false"><path d="M0 0H24V24H0z"/><path fill="#74767B" fill-rule="evenodd" d="M7 6L7 11.9461C6.40337 12.2797 6 12.9177 6 13.6498C6 13.6558 6.00003 13.6617 6.00008 13.6677C6.00003 13.6711 6 13.6745 6 13.678L6 20.4521C6 20.811 6.29102 21.1021 6.65 21.1021C7.00899 21.1021 7.3 20.811 7.3 20.4521L7.3 15.4893C7.50348 15.5612 7.72246 15.6004 7.95059 15.6004L16.0494 15.6004C16.2775 15.6004 16.4965 15.5612 16.7 15.4893L16.7 20.4529C16.7 20.8119 16.991 21.1029 17.35 21.1029C17.709 21.1029 18 20.8119 18 20.4529L18 13.678C18 13.6745 18 13.6711 17.9999 13.6677C18 13.6617 18 13.6558 18 13.6498C18 12.9177 17.5967 12.2799 17.0002 11.9462L17 6C17 4.34315 15.6569 3 14 3L10 3C8.34315 3 7 4.34315 7 6ZM14 4.3L10 4.3C9.06112 4.3 8.3 5.06112 8.3 6L8.3 7.7L15.7 7.7L15.7 6C15.7 5.06112 14.9389 4.3 14 4.3ZM15.7002 11.6992L15.7002 9L8.3 9L8.3 11.6992L15.7002 11.6992ZM7.9506 12.9992L16.0494 12.9992C16.4087 12.9992 16.7 13.2905 16.7 13.6498C16.7 14.0091 16.4087 14.3004 16.0494 14.3004L7.95059 14.3004C7.59128 14.3004 7.3 14.0091 7.3 13.6498C7.3 13.2905 7.59128 12.9992 7.9506 12.9992Z"/></svg>

<svg xmlns="http://www.w3.org/2000/svg" fill="none" viewBox="0 0 24 24" focusable="false"><path fill="#74767B" fill-rule="evenodd" d="M7 6v5.94c-.6.33-1 .97-1 1.7v6.81c0 .36.29.65.64.65.36 0 .65-.29.65-.65v-4.97q.315.12.66.12h8.09q.345 0 .66-.12v4.97c0 .36.29.65.65.65.35 0 .65-.29.65-.65v-6.81c0-.73-.41-1.37-1-1.7V6c0-1.66-1.35-3-3-3h-4C8.34 3 7 4.34 7 6m7-1.71h-4c-.94 0-1.71.77-1.71 1.71v1.7h7.41V6c0-.94-.77-1.71-1.7-1.71m1.7 7.4V9H8.29v2.69zm-7.75 1.3h8.09c.36 0 .66.3.66.65 0 .36-.3.66-.66.66H7.95c-.36 0-.66-.3-.66-.66 0-.35.3-.65.66-.65"/></svg>
